src/game/GamePart/Arena/Field/PlayersLayer/img/me-4.svg

<svg width="40" height="40" viewBox="0 0 40 40" fill="none" xmlns="http://www.w3.org/2000/svg">
<g clip-path="url(#clip0)">
<path d="M32.2358 27.5551C32.2358 20.7499 26.7193 15.2334 19.9141 15.2334C13.1093 15.2334 7.59277 20.7499 7.59277 27.5551C7.59277 34.3603 13.1093 35.7696 19.9141 35.7696C26.7193 35.7696 32.2358 34.3603 32.2358 27.5551Z" fill="#0097A7"/>
<path d="M32.2357 27.5552H32.8581C32.8574 20.406 27.0631 14.6114 19.914 14.6111C12.7652 14.6114 6.97057 20.406 6.97022 27.5552C6.9695 29.3388 7.33378 30.8194 8.02103 32.0187C8.53486 32.9175 9.22745 33.6503 10.0465 34.23C11.2767 35.1007 12.7819 35.6345 14.4545 35.9578C16.1281 36.28 17.9758 36.3919 19.914 36.3919C23.3588 36.3876 26.5222 36.0493 28.9223 34.762C30.1194 34.1175 31.1218 33.2188 31.8073 32.0187C32.4945 30.8194 32.8584 29.3388 32.8581 27.5552H31.6132C31.6125 29.174 31.2874 30.4213 30.7273 31.4002C30.306 32.1352 29.7498 32.7267 29.0622 33.2145C28.0324 33.9452 26.6974 34.4352 25.1381 34.7353C23.5799 35.0362 21.8037 35.1477 19.914 35.1473C16.5536 35.1516 13.556 34.7852 11.4968 33.6664C10.4645 33.1077 9.66259 32.3788 9.10068 31.4002C8.54092 30.421 8.21545 29.1736 8.21474 27.5548C8.2151 24.3223 9.52336 21.4013 11.6414 19.2822C13.7604 17.1642 16.6814 15.856 19.914 15.8556C23.1465 15.856 26.0675 17.1642 28.1866 19.2822C30.305 21.4013 31.6129 24.3223 31.6132 27.5548H32.2357V27.5552Z" fill="#54596E"/>
<path d="M19.2912 23.9455C19.2912 26.0079 17.6198 27.6794 15.5577 27.6794C13.4956 27.6794 11.8237 26.0079 11.8237 23.9455C11.8237 21.8834 13.4956 20.2119 15.5577 20.2119C17.6198 20.2119 19.2912 21.8834 19.2912 23.9455Z" fill="white"/>
<path d="M19.2911 23.9454H19.9135C19.9132 21.5396 17.9633 19.5897 15.5575 19.5894C13.1515 19.5897 11.2019 21.5396 11.2012 23.9454C11.2019 26.3514 13.1515 28.3014 15.5575 28.3017C17.9633 28.3014 19.9132 26.3514 19.9135 23.9454H18.669C18.6687 24.8067 18.3218 25.5805 17.7574 26.1456C17.1927 26.7097 16.4186 27.0569 15.5575 27.0572C14.6962 27.0569 13.9224 26.7097 13.3573 26.1456C12.7932 25.5805 12.4461 24.8067 12.4461 23.9454C12.4461 23.0843 12.7932 22.3106 13.3573 21.7455C13.9224 21.1814 14.6962 20.8342 15.5575 20.8339C16.4186 20.8342 17.1927 21.1814 17.7574 21.7455C18.3218 22.3106 18.6687 23.0843 18.669 23.9454H19.2911Z" fill="#54596E"/>
<path d="M28.0041 23.9455C28.0041 26.0079 26.3326 27.6794 24.2702 27.6794C22.2081 27.6794 20.5366 26.0079 20.5366 23.9455C20.5366 21.8834 22.2081 20.2119 24.2702 20.2119C26.3326 20.2119 28.0041 21.8834 28.0041 23.9455Z" fill="white"/>
<path d="M28.0035 23.9454H28.626C28.6252 21.5396 26.6757 19.5897 24.2696 19.5894C21.8639 19.5897 19.9139 21.5396 19.9136 23.9454C19.9139 26.3514 21.8639 28.3014 24.2696 28.3017C26.6757 28.3014 28.6252 26.3514 28.626 23.9454H27.3814C27.3811 24.8067 27.0339 25.5805 26.4698 26.1456C25.9047 26.7097 25.131 27.0569 24.2696 27.0572C23.4086 27.0569 22.6348 26.7097 22.0697 26.1456C21.5053 25.5805 21.1585 24.8067 21.1581 23.9454C21.1585 23.0843 21.5053 22.3106 22.0697 21.7455C22.6348 21.1814 23.4086 20.8342 24.2696 20.8339C25.131 20.8342 25.9047 21.1814 26.4698 21.7455C27.0339 22.3106 27.3811 23.0843 27.3814 23.9454H28.0035Z" fill="#54596E"/>
<path d="M1.08074 28.1005L1.08145 28.0998C1.11777 28.0607 1.65546 27.502 2.5966 26.9621C3.53952 26.4216 4.87663 25.9003 6.54383 25.9003C6.83653 25.9003 7.13956 25.9163 7.45256 25.9512C7.79405 25.9897 8.10206 25.744 8.14016 25.4025C8.17862 25.061 7.93256 24.753 7.59108 24.7145C7.23107 24.6743 6.88175 24.6558 6.54383 24.6558C4.5501 24.6558 2.9591 25.301 1.87339 25.943C0.786256 26.5861 0.193728 27.2267 0.164172 27.2584C-0.0683524 27.5112 -0.0519724 27.9051 0.201205 28.1376C0.454383 28.3701 0.848215 28.3537 1.08074 28.1005Z" fill="#54596E"/>
<path d="M1.58067 32.5305L1.37948 32.423L1.57996 32.5319L1.58067 32.5305L1.37948 32.423L1.57996 32.5319C1.58495 32.522 2.02044 31.7282 2.94021 30.8825C3.86212 30.0354 5.25229 29.137 7.21361 28.8571C7.55403 28.8083 7.79047 28.4936 7.74205 28.1531C7.69326 27.8127 7.37848 27.5763 7.03806 27.6247C4.74522 27.9509 3.10152 29.0266 2.04715 30.0133C0.990281 31.0018 0.506003 31.9031 0.483213 31.944C0.321194 32.2471 0.435854 32.6242 0.738884 32.7862C1.04191 32.9478 1.41901 32.8335 1.58067 32.5305Z" fill="#54596E"/>
<path d="M3.63397 36.2817L3.40322 36.2383L3.63361 36.2835L3.63397 36.2817L3.40322 36.2383L3.63361 36.2835C3.63503 36.2721 3.81343 35.3847 4.4373 34.3026C5.06366 33.2179 6.12088 31.9446 7.90843 31.09C8.21859 30.9418 8.34963 30.5704 8.20149 30.2603C8.05336 29.9501 7.68196 29.8191 7.37181 29.9672C5.28194 30.965 4.03563 32.4833 3.32524 33.7407C2.61271 35.0002 2.42007 36.005 2.41081 36.051C2.34707 36.3885 2.56927 36.7144 2.90684 36.7777C3.24476 36.8415 3.57023 36.6196 3.63397 36.2817Z" fill="#54596E"/>
<path d="M39.8359 27.258C39.8064 27.2267 39.2138 26.5861 38.1267 25.9427C37.041 25.301 35.45 24.6554 33.4563 24.6558C33.1183 24.6558 32.769 24.6739 32.409 24.7145C32.0675 24.753 31.8215 25.0606 31.8599 25.4025C31.898 25.744 32.206 25.9897 32.5475 25.9512C32.8609 25.9163 33.1636 25.9003 33.4563 25.9003C35.1772 25.9003 36.5471 26.4554 37.4936 27.0145C37.9657 27.2933 38.33 27.5725 38.5718 27.7783C38.6929 27.8812 38.7837 27.9659 38.8421 28.0226L38.9055 28.0856L38.9186 28.0995L38.9193 28.1002C39.1522 28.3534 39.5457 28.3701 39.7989 28.1372C40.0521 27.9051 40.0684 27.5112 39.8359 27.258Z" fill="#54596E"/>
<path d="M39.5169 31.944C39.4942 31.9027 39.0095 31.0015 37.9527 30.0133C36.8983 29.0263 35.2549 27.9509 32.9617 27.6247C32.6217 27.5763 32.3065 27.8127 32.2577 28.1531C32.2093 28.4932 32.4461 28.8083 32.7862 28.8571C34.7785 29.1416 36.1818 30.0642 37.103 30.9228C37.5624 31.3515 37.8971 31.7631 38.114 32.0633C38.2226 32.2132 38.3016 32.3354 38.3522 32.4173L38.4067 32.5084L38.4181 32.5287L38.4198 32.5319L38.6203 32.4226L38.4191 32.5302L38.4198 32.5319L38.6203 32.4226L38.4191 32.5302C38.5811 32.8332 38.9579 32.9478 39.2609 32.7862C39.5639 32.6242 39.6786 32.2471 39.5169 31.944Z" fill="#54596E"/>
<path d="M37.589 36.0508C37.5798 36.0045 37.3875 34.9996 36.6753 33.7401C35.9646 32.4831 34.7186 30.9644 32.6284 29.9667C32.3182 29.8185 31.9468 29.9499 31.7987 30.2601C31.6506 30.5702 31.782 30.9416 32.0918 31.0898C33.9074 31.9579 34.9704 33.2583 35.5921 34.3537C35.9015 34.9002 36.0981 35.3934 36.2152 35.7445C36.2736 35.9201 36.3125 36.06 36.3363 36.1533L36.3609 36.2569L36.3655 36.2794L36.3662 36.2829L36.5941 36.2384L36.3659 36.2815L36.3662 36.2829L36.5941 36.2384L36.3659 36.2815C36.4296 36.6191 36.7551 36.8413 37.093 36.7775C37.4306 36.7138 37.6528 36.3883 37.589 36.0508Z" fill="#54596E"/>
<path d="M16.8024 23.9455C16.8024 24.6331 16.2451 25.1903 15.5579 25.1903C14.8703 25.1903 14.313 24.6331 14.313 23.9455C14.313 23.2582 14.8703 22.7009 15.5579 22.7009C16.2451 22.7009 16.8024 23.2582 16.8024 23.9455Z" fill="#55A6FF"/>
<path d="M25.5148 23.9455C25.5148 24.6331 24.9575 25.1903 24.2699 25.1903C23.5827 25.1903 23.0254 24.6331 23.0254 23.9455C23.0254 23.2582 23.5827 22.7009 24.2699 22.7009C24.9575 22.7009 25.5148 23.2582 25.5148 23.9455Z" fill="#55A6FF"/>
<path d="M5.34884 11.9198C5.34884 11.9198 5.96726 6.71561 6.21665 4.61388C3.92338 4.29006 1.52829 6.69734 0.799584 10.1263C0.0490551 13.6564 1.3483 16.9234 3.70183 17.4234C6.05514 17.9239 8.57098 15.4677 9.32128 11.938C9.56966 10.77 9.58921 9.63409 9.42466 8.61486L5.34884 11.9198Z" fill="#0097A7"/>
<path d="M5.3488 11.9198L5.96691 11.9934C5.96691 11.9934 6.58489 6.78895 6.83462 4.68711C6.87455 4.35139 6.6386 4.04466 6.30384 3.9973C5.72847 3.91579 5.15009 3.97829 4.60191 4.15678C3.55093 4.50014 2.60743 5.2515 1.84495 6.26155C1.08234 7.27351 0.497993 8.55291 0.190648 9.99692C-0.169419 11.6958 -0.0892535 13.3437 0.357251 14.7214C0.627391 15.5528 1.03294 16.2882 1.57244 16.8677C2.11059 17.4465 2.79194 17.8669 3.57196 18.032C4.22538 18.1717 4.89027 18.1196 5.51409 17.9158C6.56643 17.572 7.5105 16.819 8.27424 15.807C9.03697 14.7932 9.62223 13.512 9.9297 12.0672C10.1935 10.8256 10.2162 9.61415 10.039 8.51555C10.0036 8.29604 9.85409 8.11248 9.64671 8.03309C9.43899 7.95381 9.20515 7.99123 9.0327 8.13113L4.95666 11.4365L5.3488 11.9198L5.96691 11.9934L5.3488 11.9198L5.74061 12.4031L9.81677 9.09807L9.42462 8.61482L8.81016 8.71376C8.96203 9.65361 8.94508 10.7146 8.71223 11.8083C8.4413 13.0843 7.92358 14.2047 7.27996 15.0585C6.63689 15.9141 5.87082 16.4936 5.12962 16.7325C4.68734 16.8751 4.25661 16.9046 3.83096 16.8149C3.32415 16.7059 2.8762 16.4392 2.48278 16.0189C2.09116 15.5995 1.76401 15.0248 1.54052 14.3369C1.16934 13.198 1.08807 11.7552 1.40811 10.2558C1.67859 8.98067 2.19584 7.86234 2.83832 7.01072C3.48058 6.1573 4.24597 5.57913 4.98615 5.3405C5.37437 5.21474 5.75493 5.1772 6.12963 5.22993L6.21662 4.61384L5.59862 4.54057C5.47353 5.59138 5.25686 7.41814 5.07112 8.98176C4.88504 10.5455 4.73047 11.8466 4.73047 11.8466C4.70063 12.0982 4.82613 12.3427 5.04817 12.4649C5.27032 12.5874 5.54357 12.563 5.74072 12.4035L5.3488 11.9198Z" fill="#54596E"/>
<path d="M3.56381 17.4172C3.5501 17.443 3.38112 17.748 3.24663 18.1983C3.11732 18.6473 3.00192 19.2532 3.20501 19.8978C3.31237 20.234 3.52421 20.5714 3.84643 20.8325C4.33271 21.2275 5.01628 21.4449 5.93328 21.4843C6.85435 21.5224 8.03203 21.3857 9.58221 21.0116C9.91614 20.9308 10.1217 20.5944 10.0409 20.2605C9.96014 19.9266 9.62387 19.7213 9.28994 19.8021C7.32311 20.2802 6.06026 20.3183 5.34489 20.1666C4.98556 20.0921 4.76818 19.9785 4.63411 19.8689C4.50062 19.7576 4.43511 19.6494 4.38896 19.5131C4.30046 19.2603 4.34123 18.873 4.43972 18.5527C4.48721 18.3935 4.54356 18.2535 4.58675 18.1571L4.63871 18.0474L4.65151 18.0223L4.65391 18.0181L4.46359 17.9152L4.65299 18.0199L4.65391 18.0181L4.46359 17.9152L4.65299 18.0199C4.81923 17.7192 4.71006 17.3405 4.40965 17.1742C4.10878 17.0076 3.73016 17.1168 3.56381 17.4172Z" fill="#54596E"/>
<path d="M34.6286 12.2949C34.6286 12.2949 34.4665 7.05677 34.4009 4.94115C36.714 4.81858 38.8901 7.42545 39.3169 10.9048C39.7572 14.487 38.1779 17.6281 35.7897 17.9211C33.4017 18.2146 31.1095 15.5484 30.6697 11.9669C30.5244 10.7818 30.6036 9.64832 30.8564 8.64732L34.6286 12.2949Z" fill="#0097A7"/>
<path d="M34.6284 12.295L35.2504 12.2759C35.2504 12.2759 35.0882 7.0377 35.0224 4.92162L34.4003 4.94108L34.4336 5.56255C34.8114 5.54267 35.1871 5.61356 35.5627 5.77222C36.2799 6.07473 36.9917 6.71727 37.5571 7.62342C38.1229 8.52779 38.5408 9.68694 38.6991 10.9808C38.8869 12.5023 38.6802 13.9325 38.2111 15.0347C37.9289 15.7006 37.5526 16.2445 37.1259 16.6282C36.6973 17.0126 36.2278 17.2392 35.7135 17.3036L35.7138 17.3038C35.2819 17.3561 34.8551 17.289 34.4269 17.1084C33.7097 16.8059 32.9969 16.1613 32.4307 15.2533C31.8642 14.3468 31.4458 13.1854 31.2873 11.8911C31.1508 10.7809 31.2264 9.72253 31.4593 8.79935L30.8558 8.64724L30.4233 9.09461L34.1959 12.7424C34.3779 12.9187 34.6484 12.9669 34.88 12.8641C35.112 12.7614 35.2582 12.5291 35.2504 12.2759L34.6284 12.295L35.0611 11.8478L31.2885 8.20001C31.1286 8.04547 30.8993 7.98796 30.6854 8.04883C30.4716 8.1097 30.3071 8.27934 30.2527 8.49494C29.9803 9.57423 29.8973 10.7831 30.0519 12.0429C30.2326 13.5091 30.7032 14.8365 31.3751 15.9128C32.0474 16.9873 32.9226 17.8199 33.9405 18.2543C34.5447 18.5115 35.2025 18.6213 35.8651 18.5394L35.8654 18.5395C36.6572 18.4431 37.3727 18.0834 37.959 17.5535C38.5468 17.0236 39.015 16.326 39.3568 15.5218C39.9215 14.1878 40.1453 12.5533 39.9343 10.8293C39.754 9.36404 39.2834 8.03857 38.6122 6.96414C37.9403 5.89134 37.0661 5.06107 36.0489 4.62695C35.5183 4.40137 34.9476 4.2887 34.3673 4.31975C34.0297 4.33775 33.7679 4.62275 33.7781 4.96053C33.8111 6.01824 33.8681 7.85708 33.9168 9.43093C33.9659 11.0049 34.0062 12.3144 34.0062 12.3144L34.6284 12.295L35.0611 11.8478L34.6284 12.295Z" fill="#54596E"/>
<path d="M35.3628 18.6759L35.5603 18.588L35.362 18.674L35.3628 18.6759L35.5603 18.588L35.362 18.674C35.3651 18.6804 35.4731 18.9363 35.5344 19.2559C35.5999 19.5773 35.6015 19.9498 35.4953 20.1863C35.4375 20.318 35.3628 20.4202 35.2201 20.5194C35.0093 20.6651 34.594 20.806 33.8405 20.772C33.0913 20.7391 32.0267 20.5313 30.588 20.0467C30.2622 19.9374 29.9093 20.1126 29.7997 20.4382C29.69 20.7642 29.8652 21.1171 30.1913 21.2265C32.2072 21.9015 33.5984 22.1071 34.6311 21.99C35.1462 21.9301 35.5775 21.7817 35.9208 21.5479C36.2646 21.3159 36.505 20.9982 36.6413 20.6727C36.8998 20.0482 36.8379 19.4347 36.7479 18.976C36.6534 18.5162 36.5118 18.1973 36.5004 18.1704C36.3606 17.8562 35.9928 17.7147 35.6787 17.8541C35.3645 17.9938 35.2231 18.3617 35.3628 18.6759Z" fill="#54596E"/>
<path d="M12.9222 29.8999C14.5331 32.1169 17.1525 33.5605 20.1041 33.5601C23.0407 33.5605 25.648 32.1319 27.2611 29.9341C27.4644 29.6571 27.4046 29.2675 27.1275 29.0642C26.8505 28.8609 26.4609 28.9203 26.2576 29.1977C24.8671 31.0896 22.6312 32.3156 20.1041 32.3156C17.5641 32.3156 15.3176 31.0764 13.9292 29.1682C13.7269 28.8901 13.3377 28.8285 13.0596 29.0307C12.7815 29.2326 12.7203 29.6218 12.9222 29.8999Z" fill="#54596E"/>
</g>
<defs>
<clipPath id="clip0">
<rect width="40" height="40" fill="white"/>
</clipPath>
</defs>
</svg>

<svg width="40" height="40" fill="none" xmlns="http://www.w3.org/2000/svg"><g clip-path="url(#clip0)"><path d="M32.236 27.555c0-6.805-5.517-12.322-12.322-12.322-6.805 0-12.321 5.517-12.321 12.322 0 6.805 5.516 8.215 12.321 8.215s12.322-1.41 12.322-8.215z" fill="#0097A7"/><path d="M32.236 27.555h.622c0-7.149-5.795-12.944-12.944-12.944-7.149 0-12.943 5.795-12.944 12.944 0 1.784.364 3.264 1.051 4.464a6.885 6.885 0 0 0 2.025 2.211c1.23.87 2.736 1.405 4.409 1.728 1.673.322 3.52.434 5.459.434 3.445-.004 6.608-.343 9.008-1.63 1.197-.645 2.2-1.543 2.885-2.743.688-1.2 1.051-2.68 1.051-4.464h-1.245c0 1.619-.326 2.866-.886 3.845a5.631 5.631 0 0 1-1.665 1.815c-1.03.73-2.365 1.22-3.924 1.52-1.558.301-3.334.413-5.224.412-3.36.005-6.358-.362-8.417-1.48-1.033-.56-1.834-1.288-2.396-2.267-.56-.979-.886-2.226-.886-3.845a11.66 11.66 0 0 1 3.426-8.273 11.66 11.66 0 0 1 8.273-3.426 11.66 11.66 0 0 1 8.273 3.426 11.659 11.659 0 0 1 3.426 8.273h.623z" fill="#54596E"/><path d="M19.291 23.945a3.733 3.733 0 1 1-7.467.001 3.733 3.733 0 0 1 7.467 0z" fill="#fff"/><path d="M19.291 23.945h.622a4.356 4.356 0 1 0-8.712.001 4.356 4.356 0 0 0 8.712 0H18.67c0 .86-.347 1.634-.912 2.2a3.098 3.098 0 0 1-2.2.911 3.099 3.099 0 0 1-2.2-.911 3.097 3.097 0 0 1-.91-2.2c0-.862.346-1.635.91-2.2a3.099 3.099 0 0 1 2.2-.912c.862 0 1.636.347 2.2.912.565.565.912 1.338.912 2.2h.622z" fill="#54596E"/><path d="M28.004 23.945a3.734 3.734 0 1 1-7.467.001 3.734 3.734 0 0 1 7.467 0z" fill="#fff"/><path d="M28.003 23.945h.623a4.357 4.357 0 1 0-8.714.002 4.357 4.357 0 0 0 8.714-.002h-1.245c0 .862-.347 1.636-.911 2.2a3.099 3.099 0 0 1-2.2.912 3.099 3.099 0 0 1-2.2-.911 3.098 3.098 0 0 1-.912-2.2c0-.862.347-1.635.912-2.2a3.099 3.099 0 0 1 2.2-.912c.861 0 1.635.347 2.2.912.564.565.911 1.338.911 2.2h.622zM1.08 28.1h.001c.037-.04.574-.598 1.516-1.138a7.897 7.897 0 0 1 4.856-1.01.622.622 0 1 0 .138-1.238 9.152 9.152 0 0 0-5.718 1.229c-1.087.643-1.68 1.284-1.709 1.315a.622.622 0 1 0 .917.843zM1.58 32.53l-.2-.107.2.109v-.001l-.2-.108.2.109c.005-.01.44-.804 1.36-1.65a7.873 7.873 0 0 1 4.274-2.025.622.622 0 0 0-.176-1.232 9.13 9.13 0 0 0-4.99 2.388C.99 31.002.505 31.903.482 31.944a.622.622 0 0 0 1.098.587zM3.634 36.282l-.23-.044.23.045v-.001l-.23-.044.23.045c.001-.01.18-.898.803-1.98a7.876 7.876 0 0 1 3.471-3.213.622.622 0 1 0-.536-1.123 9.128 9.128 0 0 0-4.047 3.774c-.712 1.26-.905 2.264-.914 2.31a.622.622 0 1 0 1.223.23zM39.836 27.258c-.03-.031-.622-.672-1.71-1.315a9.15 9.15 0 0 0-5.717-1.229.622.622 0 0 0 .139 1.237 7.902 7.902 0 0 1 4.946 1.063c.472.28.836.559 1.078.764.12.103.212.188.27.245l.064.063.013.014a.622.622 0 1 0 .917-.842zM39.517 31.944c-.023-.041-.508-.942-1.564-1.93a9.127 9.127 0 0 0-4.991-2.39.623.623 0 0 0-.176 1.233 7.878 7.878 0 0 1 4.317 2.066c.46.429.794.84 1.011 1.14.109.15.188.272.238.354l.055.091.011.02.002.004.2-.11-.2.108v.002l.2-.11-.2.108a.623.623 0 0 0 1.097-.586zM37.589 36.05c-.01-.045-.201-1.05-.914-2.31a9.13 9.13 0 0 0-4.047-3.773.622.622 0 1 0-.536 1.123 7.877 7.877 0 0 1 3.5 3.264c.31.546.506 1.04.623 1.39.059.176.097.316.121.41l.025.103.005.022v.004l.228-.045-.228.044.228-.044-.228.044a.622.622 0 0 0 1.223-.231z" fill="#54596E"/><path d="M16.802 23.945a1.245 1.245 0 1 1-2.489 0 1.245 1.245 0 0 1 2.49 0zM25.515 23.945a1.245 1.245 0 1 1-2.49 0 1.245 1.245 0 0 1 2.49 0z" fill="#55A6FF"/><path d="M5.349 11.92l.868-7.306C3.923 4.29 1.528 6.697.8 10.126c-.75 3.53.548 6.797 2.902 7.297 2.353.5 4.869-1.955 5.62-5.485a9.093 9.093 0 0 0 .103-3.323L5.349 11.92z" fill="#0097A7"/><path d="M5.349 11.92l.618.073.868-7.306a.623.623 0 0 0-.531-.69 3.775 3.775 0 0 0-1.702.16C3.55 4.5 2.607 5.252 1.845 6.262 1.082 7.274.498 8.552.19 9.997c-.36 1.699-.28 3.347.166 4.724.27.832.676 1.567 1.215 2.147.539.579 1.22.999 2 1.164.653.14 1.318.088 1.942-.116 1.052-.344 1.997-1.097 2.76-2.109.763-1.014 1.348-2.295 1.656-3.74a9.716 9.716 0 0 0 .109-3.551.623.623 0 0 0-1.006-.385l-4.076 3.306.392.483.618.073-.618-.073.392.483 4.076-3.305-.392-.483-.615.099c.152.94.135 2-.098 3.094-.27 1.276-.788 2.397-1.432 3.25-.643.856-1.41 1.436-2.15 1.675a2.488 2.488 0 0 1-1.299.082c-.507-.11-.955-.376-1.348-.796-.392-.42-.719-.994-.942-1.682-.372-1.139-.453-2.582-.133-4.081.27-1.275.788-2.394 1.43-3.245.643-.854 1.408-1.432 2.148-1.67A2.527 2.527 0 0 1 6.13 5.23l.087-.616-.618-.073-.528 4.44-.34 2.866a.622.622 0 0 0 1.01.556l-.392-.483z" fill="#54596E"/><path d="M3.564 17.417c-.014.026-.183.331-.317.781-.13.45-.245 1.055-.042 1.7.107.336.32.673.641.934.487.395 1.17.613 2.087.652.921.038 2.099-.098 3.65-.472a.622.622 0 0 0-.293-1.21c-1.967.478-3.23.516-3.945.365-.36-.075-.577-.189-.71-.298a.737.737 0 0 1-.246-.356c-.089-.253-.048-.64.05-.96.048-.16.105-.3.148-.396l.052-.11.013-.025.002-.004-.19-.103.189.105v-.002l-.19-.103.19.105a.623.623 0 0 0-1.09-.603z" fill="#54596E"/><path d="M34.629 12.295L34.4 4.94c2.313-.122 4.49 2.484 4.916 5.964.44 3.582-1.14 6.723-3.527 7.016-2.388.294-4.68-2.373-5.12-5.954a9.1 9.1 0 0 1 .186-3.32l3.773 3.648z" fill="#0097A7"/><path d="M34.628 12.295l.622-.02-.228-7.353-.622.02.034.62a2.53 2.53 0 0 1 1.129.21c.717.303 1.429.945 1.994 1.851.566.905.984 2.064 1.142 3.358.188 1.521-.019 2.951-.488 4.054-.282.666-.658 1.21-1.085 1.593-.429.385-.898.611-1.412.676a2.49 2.49 0 0 1-1.287-.196c-.717-.302-1.43-.947-1.996-1.855-.567-.906-.985-2.068-1.144-3.362A8.486 8.486 0 0 1 31.46 8.8l-.603-.152-.433.448 3.773 3.647a.62.62 0 0 0 1.054-.466l-.622.019.433-.447L31.288 8.2a.622.622 0 0 0-1.035.295 9.715 9.715 0 0 0-.201 3.548c.18 1.466.651 2.793 1.323 3.87.672 1.074 1.548 1.907 2.566 2.341a3.732 3.732 0 0 0 1.924.285c.792-.096 1.508-.456 2.094-.986.588-.53 1.056-1.227 1.398-2.031.565-1.334.788-2.969.577-4.693-.18-1.465-.65-2.79-1.322-3.865-.672-1.073-1.546-1.903-2.563-2.337a3.776 3.776 0 0 0-1.682-.307.623.623 0 0 0-.589.64l.139 4.47.09 2.884.621-.019.433-.447-.433.447z" fill="#54596E"/><path d="M35.363 18.676l.197-.088-.198.086v.002l.198-.088-.198.086c.003.006.111.262.172.582.066.321.068.694-.039.93a.737.737 0 0 1-.275.333c-.21.146-.626.287-1.38.253-.749-.033-1.813-.24-3.252-.725a.623.623 0 0 0-.397 1.18c2.016.674 3.407.88 4.44.763.515-.06.947-.208 1.29-.442.344-.232.584-.55.72-.875.259-.625.197-1.238.107-1.697-.095-.46-.236-.779-.248-.806a.623.623 0 0 0-1.137.506zM12.922 29.9a8.863 8.863 0 0 0 7.182 3.66 8.862 8.862 0 0 0 7.157-3.626.622.622 0 0 0-1.003-.736 7.617 7.617 0 0 1-6.154 3.118 7.618 7.618 0 0 1-6.175-3.148.623.623 0 0 0-1.007.732z" fill="#54596E"/></g><defs><clipPath id="clip0"><path fill="#fff" d="M0 0h40v40H0z"/></clipPath></defs></svg>
